X:300
T: Gone for his Tea
T: Imithe chuig an Tae
S: B.Breathnach:"Ceol Rince na hEireann" III/144
Z: B.Black
L: 1/8
M: 4/4
R: reel
K: Edor
E2 FE DEFG|A2 BF AFDF|E2 FE DEFG|AFDF (3EFE dz :|
d2 ed cA A2|BAGB A2 Bc|d2 ed (3cBA Bc|dBAF (3EFE Dz|
d2 ed cA A2|BAGB AFDF|G2 FE DEFG|AFDF (3EFE DF ||
